X: 16
T: Habbadekuk
R: S\"onderhoning
M: 2/4
L: 1/16
K: D
|: (3f2e2f2 d4 | e2g2 e3d | c2d2 e2A2 |1 d2d2 f2f2 :|2 d4 "fine"d4 |]
w: Hab-ba-de-kuk
[| d2f2 a2a2 | g2g2 b2b2 | e2e2 g2g2 | f2f2 a2a2 \
|  (3f2a2f2 d4 | e2g2 e3d | c2d2 e2A2 | d4 d4 |]
